src/assets/images/logos.svg

<svg width="166" height="47" viewBox="0 0 166 47" fill="none" xmlns="http://www.w3.org/2000/svg">
<path d="M36.3777 16.7343L35.9949 16.3879C35.8383 16.2512 32.1666 12.9604 32.1666 9.27774C32.1666 5.19395 35.8644 2.15845 36.021 2.03083L36.3864 1.73914L36.7518 2.02172C36.9085 2.14934 40.7455 5.09368 40.7455 9.28686C40.7455 13.0607 36.9346 16.2785 36.7779 16.4153L36.3777 16.7343Z" fill="#870337"/>
<path d="M43.1469 5.56775C46.7316 7.01713 49.1156 9.51481 49.1156 12.1036C49.1156 16.0872 43.4427 19.3141 36.4386 19.3141C29.4432 19.3141 23.7703 16.0872 23.7703 12.1036C23.7703 9.57862 26.0499 7.12652 29.5041 5.66802C24.2315 6.88951 20.4032 9.44188 20.4032 12.4045C20.4032 16.5521 27.7379 19.9066 36.5343 19.9066C45.3394 19.9066 52.6655 16.5521 52.6655 12.4045C52.6742 9.35984 48.6544 6.75278 43.1469 5.56775Z" fill="#870337"/>
<path d="M49.2636 46.3783H46.3401V28.1562H49.2636V46.3783ZM55.4237 28.1562H59.1389L52.4481 37.2991L59.2172 46.3874H55.3367L48.8982 37.2991L55.4237 28.1562Z" fill="#870337"/>
<path d="M2.77553 41.9937L10.8063 28.1471H14.217V46.3965H11.4415V32.6867L3.48899 46.3965H0V28.1471H2.77553V41.9937Z" fill="#870337"/>
<path d="M24.5969 28.1471H18.5325V46.3965H21.456V40.043H23.7965C28.0772 40.043 30.2089 37.4268 30.2089 33.7988C30.2176 30.3986 28.4253 28.1471 24.5969 28.1471ZM23.6921 37.363H21.456V30.7906H24.2228C25.9978 30.7906 27.1463 31.9027 27.1463 33.9446C27.155 36.1962 25.7976 37.363 23.6921 37.363Z" fill="#870337"/>
<path d="M32.8801 46.3965H43.1905V43.6619H35.8122V38.4022H42.7119V35.7495H35.8122V30.8453H43.1905V28.1471H32.8801V46.3965Z" fill="#870337"/>
<path d="M72.7293 42.2125C71.894 42.9691 70.4149 43.7986 68.3876 43.7986C65.2467 43.7986 63.1585 41.8479 63.1585 37.363C63.1585 32.8508 65.2467 30.6448 68.4137 30.6448C70.354 30.6448 71.6939 31.3923 72.5379 32.1215C73.1034 31.6202 73.4776 30.9821 73.4776 30.2802C73.4776 28.5755 70.7716 27.8007 68.4746 27.8007C63.5065 27.8007 60.0784 31.0368 60.0784 37.4724C60.0784 43.99 63.1063 46.7247 68.1614 46.7247C70.6846 46.7247 73.6429 45.804 73.6429 44.0447C73.6342 43.3611 73.3209 42.6865 72.7293 42.2125Z" fill="#870337"/>
<path fill-rule="evenodd" clip-rule="evenodd" d="M128.49 15.5351L128.094 15.1841C127.933 15.0436 124.19 11.6338 124.19 7.81267C124.19 3.58039 127.962 0.44128 128.122 0.310902L128.49 0L128.867 0.290843C129.027 0.421221 132.94 3.47007 132.94 7.81267C132.94 11.724 129.055 15.0537 128.895 15.1941L128.49 15.5351Z" fill="#870337"/>
<path fill-rule="evenodd" clip-rule="evenodd" d="M135.392 3.97153C139.041 5.46586 141.474 8.0634 141.474 10.7311C141.474 14.8531 135.684 18.1928 128.546 18.1928C121.408 18.1928 115.619 14.8531 115.619 10.7311C115.619 8.11355 117.948 5.57618 121.465 4.06179C116.081 5.32546 112.186 7.97314 112.186 11.032C112.186 15.3245 119.664 18.7945 128.641 18.7945C137.617 18.7945 145.095 15.3245 145.095 11.032C145.104 7.90294 141.003 5.20511 135.392 3.97153Z" fill="#870337"/>
<path fill-rule="evenodd" clip-rule="evenodd" d="M99.0132 46.5551H95.8827V30.9498H91.3V27.6302H103.587V30.9498H99.0132V46.5551Z" fill="#870337"/>
<path fill-rule="evenodd" clip-rule="evenodd" d="M122.728 41.9818L130.875 27.59H134.336V46.5551H131.526V32.3037L123.445 46.5551H119.909V27.59H122.728V41.9818Z" fill="#870337"/>
<path fill-rule="evenodd" clip-rule="evenodd" d="M111.14 37.1378H108.876V30.2678H111.686C113.487 30.2678 114.657 31.4312 114.657 33.5574C114.647 35.9142 113.28 37.1378 111.14 37.1378ZM112.064 27.5098H105.916V46.5551H108.886V39.9158H111.262C115.609 39.9158 117.768 37.1879 117.768 33.4069C117.759 29.8667 115.949 27.5098 112.064 27.5098Z" fill="#870337"/>
<path fill-rule="evenodd" clip-rule="evenodd" d="M159.371 37.1979H157.108V30.3781H159.918C161.719 30.3781 162.888 31.5315 162.888 33.6476C162.879 35.9744 161.512 37.1979 159.371 37.1979ZM160.295 27.6302H154.147V46.5551H157.117V39.9659H159.494C163.841 39.9659 166 37.2481 166 33.4972C165.991 29.9669 164.18 27.6302 160.295 27.6302Z" fill="#870337"/>
<path fill-rule="evenodd" clip-rule="evenodd" d="M142.672 27.1487C140.107 27.1487 137.108 28.0915 137.108 29.8967C137.108 30.6088 137.429 31.3008 138.023 31.7822C138.872 31.0099 140.371 30.1474 142.426 30.1474C145.255 30.1474 147.245 31.732 147.66 35.3124H140.918V38.3813H147.641C147.188 41.9116 145.218 43.6366 142.408 43.6366C140.437 43.6366 139.079 42.8643 138.221 42.1222C137.655 42.6437 137.269 43.2956 137.269 44.0077C137.269 45.7527 140.022 46.5551 142.342 46.5551C147.386 46.5551 150.866 43.2454 150.866 36.6363C150.875 29.9569 147.792 27.1487 142.672 27.1487Z" fill="#870337"/>
<rect x="82.17" y="1.73917" width="0.83" height="45.218" fill="#870337"/>
</svg>

<?xml version="1.0" encoding="utf-8"?>
<!-- Generator: Adobe Illustrator 23.0.1, SVG Export Plug-In . SVG Version: 6.00 Build 0)  -->
<svg version="1.1" id="Layer_1" xmlns="http://www.w3.org/2000/svg" xmlns:xlink="http://www.w3.org/1999/xlink" x="0px" y="0px"
	 viewBox="0 0 166 70" style="enable-background:new 0 0 166 70;" xml:space="preserve">
<style type="text/css">
	.st0{fill:#870337;}
	.st1{fill-rule:evenodd;clip-rule:evenodd;fill:#870337;}
</style>
<path class="st0" d="M36.4,16.7L36,16.4c-0.2-0.1-3.8-3.4-3.8-7.1c0-4.1,3.7-7.1,3.9-7.2l0.4-0.3L36.8,2c0.2,0.1,4,3.1,4,7.3
	c0,3.8-3.8,7-4,7.1L36.4,16.7z"/>
<path class="st0" d="M43.1,5.6c3.6,1.4,6,3.9,6,6.5c0,4-5.7,7.2-12.7,7.2c-7,0-12.7-3.2-12.7-7.2c0-2.5,2.3-5,5.7-6.4
	c-5.3,1.2-9.1,3.8-9.1,6.7c0,4.1,7.3,7.5,16.1,7.5c8.8,0,16.1-3.4,16.1-7.5C52.7,9.4,48.7,6.8,43.1,5.6z"/>
<path class="st0" d="M49.3,46.4h-2.9V28.2h2.9V46.4z M55.4,28.2h3.7l-6.7,9.1l6.8,9.1h-3.9l-6.4-9.1L55.4,28.2z"/>
<path class="st0" d="M2.8,42l8-13.8h3.4v18.2h-2.8V32.7l-8,13.7H0V28.1h2.8V42z"/>
<path class="st0" d="M24.6,28.1h-6.1v18.2h2.9V40h2.3c4.3,0,6.4-2.6,6.4-6.2C30.2,30.4,28.4,28.1,24.6,28.1z M23.7,37.4h-2.2v-6.6
	h2.8c1.8,0,2.9,1.1,2.9,3.2C27.2,36.2,25.8,37.4,23.7,37.4z"/>
<path class="st0" d="M32.9,46.4h10.3v-2.7h-7.4v-5.3h6.9v-2.7h-6.9v-4.9h7.4v-2.7H32.9V46.4z"/>
<path class="st0" d="M72.7,42.2c-0.8,0.8-2.3,1.6-4.3,1.6c-3.1,0-5.2-2-5.2-6.4c0-4.5,2.1-6.7,5.3-6.7c1.9,0,3.3,0.7,4.1,1.5
	c0.6-0.5,0.9-1.1,0.9-1.8c0-1.7-2.7-2.5-5-2.5c-5,0-8.4,3.2-8.4,9.7c0,6.5,3,9.3,8.1,9.3c2.5,0,5.5-0.9,5.5-2.7
	C73.6,43.4,73.3,42.7,72.7,42.2z"/>
<path class="st1" d="M128.5,15.5l-0.4-0.4c-0.2-0.1-3.9-3.6-3.9-7.4c0-4.2,3.8-7.4,3.9-7.5l0.4-0.3l0.4,0.3c0.2,0.1,4.1,3.2,4.1,7.5
	c0,3.9-3.9,7.2-4,7.4L128.5,15.5z"/>
<path class="st1" d="M135.4,4c3.6,1.5,6.1,4.1,6.1,6.8c0,4.1-5.8,7.5-12.9,7.5c-7.1,0-12.9-3.3-12.9-7.5c0-2.6,2.3-5.2,5.8-6.7
	c-5.4,1.3-9.3,3.9-9.3,7c0,4.3,7.5,7.8,16.5,7.8c9,0,16.5-3.5,16.5-7.8C145.1,7.9,141,5.2,135.4,4z"/>
<path class="st1" d="M99,46.6h-3.1V30.9h-4.6v-3.3h12.3v3.3H99V46.6z"/>
<path class="st1" d="M122.7,42l8.1-14.4h3.5v19h-2.8V32.3l-8.1,14.3h-3.5v-19h2.8V42z"/>
<path class="st1" d="M111.1,37.1h-2.3v-6.9h2.8c1.8,0,3,1.2,3,3.3C114.6,35.9,113.3,37.1,111.1,37.1z M112.1,27.5h-6.1v19h3v-6.6
	h2.4c4.3,0,6.5-2.7,6.5-6.5C117.8,29.9,115.9,27.5,112.1,27.5z"/>
<path class="st1" d="M159.4,37.2h-2.3v-6.8h2.8c1.8,0,3,1.2,3,3.3C162.9,36,161.5,37.2,159.4,37.2z M160.3,27.6h-6.1v18.9h3V40h2.4
	c4.3,0,6.5-2.7,6.5-6.5C166,30,164.2,27.6,160.3,27.6z"/>
<path class="st1" d="M142.7,27.1c-2.6,0-5.6,0.9-5.6,2.7c0,0.7,0.3,1.4,0.9,1.9c0.8-0.8,2.3-1.6,4.4-1.6c2.8,0,4.8,1.6,5.2,5.2h-6.7
	v3.1h6.7c-0.5,3.5-2.4,5.3-5.2,5.3c-2,0-3.3-0.8-4.2-1.5c-0.6,0.5-1,1.2-1,1.9c0,1.7,2.8,2.5,5.1,2.5c5,0,8.5-3.3,8.5-9.9
	C150.9,30,147.8,27.1,142.7,27.1z"/>
<rect x="82.2" y="1.7" class="st0" width="0.8" height="45.2"/>
<path class="st0" d="M39.9,61.8h-3.1v4.8h0.9v-4h2.1V61.8z M42.2,68.4h0.9v-2.5h0.1c0.2,0.3,0.5,0.8,1.4,0.8c1.2,0,2-0.9,2-2.5
	c0-1.6-0.9-2.5-2-2.5c-0.9,0-1.2,0.5-1.4,0.8h-0.1v-0.8h-0.9V68.4z M43.1,64.2c0-1,0.4-1.7,1.3-1.7c0.8,0,1.3,0.7,1.3,1.7
	c0,1-0.4,1.7-1.3,1.7C43.6,65.9,43.1,65.2,43.1,64.2z M49.4,68.4c0.8,0,1.3-0.4,1.5-1.2l2-5.4l-1,0l-1.2,3.7h0l-1.2-3.7h-1l1.8,4.9
	L50.1,67c-0.2,0.6-0.6,0.7-1.1,0.5l-0.2,0.8C48.9,68.3,49.2,68.4,49.4,68.4z M55.2,66.6h0.9v-4h2.1v4h0.9v-4.8h-3.9V66.6z
	 M61.7,66.6h0.9v-4h2.1v4h0.9v-4.8h-3.9V66.6z M69.7,66.7c0.8,0,1.2-0.4,1.4-0.8h0v0.7H72v-3.2c0-1.4-1.1-1.7-1.9-1.7
	c-0.9,0-1.7,0.3-2,1.2l0.9,0.2c0.1-0.3,0.5-0.7,1.1-0.7c0.6,0,0.9,0.3,0.9,0.9v0c0,0.3-0.3,0.3-1.2,0.4C69,63.9,68,64.1,68,65.2
	C68,66.2,68.8,66.7,69.7,66.7z M69.9,65.9c-0.5,0-0.9-0.2-0.9-0.7c0-0.5,0.4-0.7,1-0.7c0.3,0,1-0.1,1.2-0.3v0.6
	C71.1,65.4,70.6,65.9,69.9,65.9z M78.3,66.6h0.9v-1.9h0.6l1.4,1.9h1.2l-1.9-2.5l1.9-2.3h-1.2l-1.6,2h-0.4v-2h-0.9V66.6z M86.4,66.7
	c1.4,0,2.2-1,2.2-2.5c0-1.5-0.9-2.5-2.2-2.5s-2.2,1-2.2,2.5C84.2,65.7,85.1,66.7,86.4,66.7z M86.4,65.9c-0.9,0-1.3-0.8-1.3-1.7
	c0-0.9,0.4-1.7,1.3-1.7c0.9,0,1.3,0.8,1.3,1.7C87.7,65.1,87.3,65.9,86.4,65.9z M93.8,65.4l-1.5-3.6h-1.2v4.8H92v-3.5l1.4,3.5h0.7
	l1.5-3.5v3.5h0.9v-4.8h-1.2L93.8,65.4z M99.1,66.6h0.9v-4h2.1v4h0.9v-4.8h-3.9V66.6z M107,66.7c0.8,0,1.2-0.4,1.4-0.8h0v0.7h0.9
	v-3.2c0-1.4-1.1-1.7-1.9-1.7c-0.9,0-1.7,0.3-2,1.2l0.9,0.2c0.1-0.3,0.5-0.7,1.1-0.7c0.6,0,0.9,0.3,0.9,0.9v0c0,0.3-0.3,0.3-1.2,0.4
	c-0.9,0.1-1.8,0.3-1.8,1.4C105.4,66.2,106.1,66.7,107,66.7z M107.2,65.9c-0.5,0-0.9-0.2-0.9-0.7c0-0.5,0.4-0.7,1-0.7
	c0.3,0,1-0.1,1.2-0.3v0.6C108.4,65.4,108,65.9,107.2,65.9z M112.9,61.8H112v4.8h0.9v-2h2.1v2h0.9v-4.8H115v2h-2.1V61.8z M119.4,65.3
	v-3.5h-0.9v4.8h1l2.1-3.5v3.5h0.9v-4.8h-1L119.4,65.3z M126.1,65.3v-3.5h-0.9v4.8h1l2.1-3.5v3.5h0.9v-4.8h-1L126.1,65.3z
	 M127.8,60.2c0,0.3-0.2,0.6-0.6,0.6c-0.4,0-0.6-0.3-0.6-0.6h-0.8c0,0.7,0.5,1.2,1.4,1.2c0.8,0,1.4-0.5,1.4-1.2H127.8z"/>
</svg>
